X:25
T:Miss Crofton
R:carolan
C:Turlough O'Carolan (1670-1738)
C:Thomas Connellan (c. 1640 - 1698)
H:Turlough O'Carolan probably adapted Thomas Connellan's air "Lady Iveagh"
H:and named it "Miss Crofton". See air#8
Z:id:hn-carolan-25
M:4/4
L:1/8
K:Ador
|: AB e>d A2 B/A/G/E/ | G>A B>A G>A G/E/D | EA BA/B/ A2 B>e | d>B AA A4 :| 
|: ee/d/ eg g2 ge/d/ | ee/d/ ea a2 b/a/g/e/ | ee/d/ eg g2 ge/d/ | e>a aa a2 g>a | 
b>a g>b a2 ag/e/ | e>d e/f/g/f/ e2 ed/B/ | B>e ee e2 dB/A/ | GE/G/ AA A4 :| 
<end>
<start>
